X: 4
T: Master Crowley's
R: reel
M: 4/4
L: 1/8
K: Edor
|:B,E (3EDE B,EFE|EDA,G, A,DFD|B,E (3EDE DGBG|FAdA FEEF|GFED B,EFE|D2A,G, A,DFD|B,E (3EDE DGBG|FAdA FEED:||:ebab gaeg|fdad bdad |ebge f3e|dBAc BE E2||ebab gaeg|fdad bdad |EFGA B3B|AFdF FE E2:|


Tune 281	Setting 22398

